X:1
T:[ID 2-23a]
T:[ID 2-23a]
T:Bezeichnung standardisiert: Waltzer Germane; Waltzer In dieser Quelle auch als: Angeloise oder Waltzer In dieser Quelle auch als: Waltzer Germane
T:Urheber unbekannt Erstbeleg: 1767 (Datum in der schriftlichen Quelle) Datum in der hier transkribierten schriftlichen Quelle: 1792
C:Urheber unbekannt
C:Erstbeleg: 1767 (Datum in der schriftlichen Quelle)
C:Datum in der hier transkribierten schriftlichen Quelle: 1792
L:1/8
M:3/4
K:D
V:1 treble 
V:1
 de | f2 d2 d2 | g2 e2 e2 | f2 d2 d2 | edcB A2 | f2 d2 d2 | g2 e2 e2 | f2 d2 ce | d3 :: e2 | %10
 efedcB | A^GABcd | efedcB | A4 de | f2 d2 d2 | g2 e2 e2 | f2 d2 ce | d3 :| %18

